X:1
T:Maienglöckchen
T:Eduard Tauwitz
T:Hoffmann von Fallersleben
T:Maienglöckchen
T:Op. 24, Nr. 4
T:CPDL - Creative Commons Attribution Non Commercial 3.0
T:CPDL - Creative Commons Attribution Non Commercial 3.0
T:CPDL - Creative Commons Attribution Non Commercial 3.0
T:CPDL - Creative Commons Attribution Non Commercial 3.0
C:Eduard Tauwitz
Z:Hoffmann von Fallersleben
Z:CPDL - Creative Commons Attribution Non Commercial 3.0
%%score [ ( 1 2 ) ( 3 4 ) ]
L:1/8
Q:1/4=60
M:4/8
K:G
V:1 treble nm="Sopran\nAlt"
V:2 treble 
V:3 bass nm="Tenor\nBass"
V:4 bass 
V:1
"^Lieblich, zart und nicht schnell""^dolce" BB | dcAc | BG!<(!ed!<)! |!>(! dc!>)!Ad | %4
w: Klin- get,|Mai- en- glöck- chen,|klin- get, dass der|Früh- ling bald er-|
 B z"^cresc." BB | eB!<(!fB!<)! |!f! gfe^c | Bd"^decresc."^c^A | B z!p!"^dolce" !>!=cB | BABA | %10
w: wacht; dass er|Blüt' und Blu- men|brin- get, lan- ge|Tag' und kur- ze|Nacht. Dass sich|aus der Knos- pe|
!<(! GB!<)!!>(!ed!>)! | A^G!<(!A^A!<)! | B z !>!d=c | cBcB |!<(! Ac!<)!!>(!=fe!>)! | edcB | %16
w: je- de Blü- te|sehnt an's Son- nen-|licht, Ant- wort|gibt auf je- de|Re- de, die zu|ihr der Sän- ger|
 c z"^dolce" z2 |!<(! d/e/ d/^c/!<)!!>(! d/=c/ B/A/!>)! | Gg d2 | d/e/ d/^c/ d/=c/B/A/ | %20
w: spricht.|Klin- * get, * Glöck- * chen, *|klin- * get,|dass * der * Früh- * ling er-|
 B z!f! gg | g4 | e z ee | e4 | e z !>!cA | BB!<(!cc!<)! | ^c d/^d/!>(!e=c!>)! |"^dolce" BdcA | %28
w: wacht, klin- get,|klin-|get, Glöck- chen,|klin-|get, dass er|Blüt' und Blu- men|brin- get, _ lan- ge|Tag' und kur- ze|
 G2 z2 |!f! !>!g3 e | dB z2 | !>!g3 e | d2 z2 |"^dolce"!<(! A3 A!<)! |!>(! e2!>)! d2 | %35
w: Nacht.|Dass der|Früh- ling|bald er-|wacht,|dass er|Blüt' und|
!<(! A3 A!<)! |!>(! e2!>)! d z |!f! .e.Bc!p!A |!<(! d4-!<)! | d2 F2 | G z z2 | d4 | !>!B z GB | %43
w: Blu- men|brin- get,|lan- ge Tag' und|kur-|* ze|Nacht!|Klin-|get, Glöck- chen,|
 d4 | !>!G z"^dolce" BB | GBG B/!<(!d/!<)! |!>(! !fermata!g2!>)! z2 |] %47
w: klin-|get, dass der|Früh- ling bald er- *|wacht.|
V:2
 G/F/ G/F/ | G/F/ E/D/ ^C/D/ E/F/ | G/F/ G/D/ A/G/ F/G/ | G/F/ E/D/ ^C/D/ E/F/ | G x ^D/E/ F/D/ | %5
w: |||||
 E/F/ G/E/ F/G/ A/F/ | B/c/ B/A/ G/A/ G/E/ | D/E/ F/^E/ F/=E/ D/^C/ | B, x FG | FFFF | GGGG | %11
w: ||||||
 FDFF | G x ^GA | ^GGGG | AAAA | ^GGEE | E x DD | DDFF | GGFG | DDFF | G x d/e/ d/B/ | %21
w: |||||* Ant- wort|gibt auf je- de|Re- de, die zu|ihr der Sän- ger|spricht. Klin- * get, *|
 c/G/ B/c/ d/e/ d/B/ | c/B/ A/G/ ^G/A/ B/G/ | A/E/ ^G/A/ B/c/ B/G/ | A x ED | DGAA | ^A B/G/G=A | %27
w: Mai- * en- * glöck- * chen, *|klin- * get, * dass * der *|Früh- * ling * bald * er- *|wacht; * *|||
 GBAF | G2 x2 | G3 G | GFGF | G4 | G2 x2 | F3 F | AG FG | F3 F | G2 G x | .G.^GAA | (G2 ^G2 | %39
w: |||* * bald er-|wacht,|_|||||||
 A2) D2 | D x x2 | F/G/ A/G/ F/G/ F/A/ | GcB z | A/B/ A/G/ F/G/A/F/ | G x GG | GGGG | B2 x2 |] %47
w: ||Klin- * get, * Glöck- * chen, *|klin- * get,|dass * der * Früh- * ling er-|wacht, * *|||
V:3
"^dolce" DB, | A,A,F,A, | B,B,!<(!DB,!<)! |!>(! A,A,!>)!F,A, | B, z"^cresc." A,A, | %5
 G,B,!<(!B,^D!<)! |!f! EE^CE | FB,"^decresc."^A,E | D z!p!"^dolce" !>!=A,B, | DCDC | %10
!<(! B,D!<)!!>(!CB,!>)! | CB,!<(!CC!<)! | B, z !>!B,C | EDED | CE!>(!DC!>)! | CB,A,^G, | %16
 A, z"^dolce" CB, |!<(! A,C!<)!!>(!E D/C/!>)! | B,DCB, | A,CE D/C/ | B, z!f! =FF | EE=FF | %22
 EE!>!DD | !>!CC!>!DD | C z !>!CC | B,D!<(!DD!<)! | G, G,/=F/!>(!EE!>)! |"^dolce" DDDC | B,2 z2 | %29
!f! E3 C | B,D z2 | !>!E3 C | B,2 z2 |"^dolce"!<(! D3 D!<)! |!>(! D2!>)! B,2 |!<(! D3 D!<)! | %36
!>(! D2!>)! D z |!f! .C.D.C!p!.E |!<(! (B,4!<)! | C2) A,C | B,"^dolce" z z2 | %41
 A,/B,/ C/B,/!<(! A,/B,/ A,/C/!<)! | B,ED z | C/D/!<(! C/B,/ A,/B,/!<)!C/A,/ | B, z"^dolce" DD | %45
 B,DB, D/!<(!B,/!<)! |!>(! !fermata!D2!>)! z2 |] %47
V:4
 G,G, | D,D,D,D, | G,D,B,,G,, | D,D,D,D, | G, x F,F, | E,E,^D,B,, | E,E,E,G, | F,F,F,F, | %8
w: ||||||||
 B,, D,2 D,- | D, D,2 D, | G, D,2 D,- | D,D,D,D, | G, E,2 E,- | E, E,2 E, | A, E,2 E,- | E,E,E,E, | %16
w: * Dass sich|_ je- de|Blü- te sehnt|_ an's Son- nen-|licht, Ant- wort|_ gibt auf|je- de Re-|* de, die er|
 A,, x A,G, | F,F,D,D, | G,B,A,G, | F,F,D,D, | G, x B,G, | CG,B,G, | CCB,E, | A,E,^G,E, | %24
w: spricht. * *||||||||
 A, x A,/=G,/ F,/D,/ | G,/B,/ A,/G,/ F,/A,/ G,/F,/ | E,/_E,/ D,/B,,/C,C, | D,D,D,D, | G,2 x2 | %29
w: |||||
 C,3 E, | G,B, x2 | C,3 E, | G,2 x2 | C3 C | B,2 G,2 | C3 C | B,2 B,, x | .C,.E,.A,,.C, | D,4- | %39
w: ||bald er-|wacht,|||||||
 D,2 D,2 | G,B, A,/G,/ F,/E,/ | D,D,D,D, | G,G, C/B,/ G,/E,/ | D,4 | G, x G,G, | G,4 | G,,2 x2 |] %47
w: |* ja, klin- * get, *|Mai- en- glöck- chen,|klin- get, klin- * get, *|klin-|get, klin- get,|klin-|get.|

